svg/work-doodle-sintija.svg

<svg width="303" height="400" viewBox="0 0 303 400" fill="none" xmlns="http://www.w3.org/2000/svg">
<path d="M58.3357 59.1039C49.6906 59.1039 24.0553 67.1089 42.5579 75.1039C64.6237 84.6385 88.4911 79.7356 111.336 78.1039" stroke="#15CE79" stroke-width="3" stroke-linecap="round"/>
<path d="M117.336 80.1039C119.509 75.079 122.336 69.7049 122.336 64.1039C122.336 59.316 122.273 64.4962 122.336 66.3261C122.452 69.6946 124.116 73.476 127.836 74.0483C129.776 74.3469 135.548 73.4303 133.725 74.1594C127.828 76.5183 126.336 82.74 126.336 88.5483C126.336 92.5849 126.673 88.5149 125.336 87.1039C122.808 84.4351 118.703 83.9457 115.336 83.1039" stroke="#15CE79" stroke-width="3" stroke-linecap="round"/>
<path d="M176.336 42.1039C180.651 39.8195 181.336 35.9188 181.336 31.3261C181.336 29.4766 180.616 24.3965 181.391 28.6594C181.979 31.8887 185.159 34.9184 187.558 36.8817C188.893 37.9738 194.326 36.5189 192.725 37.1594C189.265 38.5432 185.443 46.3218 188.558 49.8817C188.957 50.3372 187.721 48.4485 187.336 48.1039C185.944 46.8581 183.144 46.3603 181.336 46.1594C179.23 45.9254 174.432 43.9126 173.336 46.1039" stroke="#15CE79" stroke-width="3" stroke-linecap="round"/>
<path d="M145.336 79.1039C163.908 74.3733 182.628 69.9297 200.891 64.3261C208.448 62.0077 217.724 59.7162 223.558 53.8817C227.684 49.7562 230.753 45.326 225.114 42.1039C219.231 38.7422 203.08 40.232 197.336 43.1039" stroke="#15CE79" stroke-width="3" stroke-linecap="round"/>
</svg>

<svg xmlns="http://www.w3.org/2000/svg" width="303" height="400" fill="none"><path stroke="#15CE79" stroke-linecap="round" stroke-width="3" d="M58.336 59.104c-8.645 0-34.28 8.005-15.778 16 22.066 9.534 45.933 4.632 68.778 3m6 2c2.173-5.025 5-10.4 5-16 0-4.788-.063.392 0 2.222.116 3.369 1.78 7.15 5.5 7.722 1.94.299 7.712-.618 5.889.111-5.897 2.36-7.389 8.581-7.389 14.39 0 4.036.337-.034-1-1.445-2.528-2.669-6.633-3.158-10-4m61-41c4.315-2.285 5-6.185 5-10.778 0-1.85-.72-6.93.055-2.667.588 3.23 3.768 6.26 6.167 8.223 1.335 1.092 6.768-.363 5.167.277-3.46 1.384-7.282 9.163-4.167 12.723.399.455-.837-1.433-1.222-1.778-1.392-1.246-4.192-1.744-6-1.945-2.106-.234-6.904-2.246-8-.055"/><path stroke="#15CE79" stroke-linecap="round" stroke-width="3" d="M145.336 79.104c18.572-4.73 37.292-9.174 55.555-14.778 7.557-2.318 16.833-4.61 22.667-10.444 4.126-4.126 7.195-8.556 1.556-11.778-5.883-3.362-22.034-1.872-27.778 1"/></svg>
